X: 1250
T: An Dro Pharao
R: reel
M: 4/4
K: Gminor
|:G2 d2 d2 de|c2 cd B4|1 ABcA B2 G2|GFGA B2 A2:|2 ABcA B2 GA|BGAF G4||
|:ABcA B2 G2|GFGA B2 A2|ABcA B2 GA|BGAF G4:|

